icons/arrow-left.svg

<svg width="24" height="24" viewBox="0 0 24 24" fill="none" xmlns="http://www.w3.org/2000/svg">
<path fill-rule="evenodd" clip-rule="evenodd" d="M6.26251 11.9C6.26251 11.4858 6.5983 11.15 7.01251 11.15L17.0125 11.15C17.4267 11.15 17.7625 11.4858 17.7625 11.9C17.7625 12.3142 17.4267 12.65 17.0125 12.65L7.01251 12.65C6.5983 12.65 6.26251 12.3142 6.26251 11.9Z" fill="black"/>
<path fill-rule="evenodd" clip-rule="evenodd" d="M7.74168 12.0682L11.5283 15.6555C11.829 15.9404 11.8418 16.4151 11.557 16.7158C11.2721 17.0165 10.7974 17.0293 10.4967 16.7444L6.68932 13.1374L6.68216 13.1303C6.08926 12.5374 6.08926 11.5625 6.68216 10.9696L6.68923 10.9625L10.4893 7.2626C10.786 6.97363 11.2609 6.97997 11.5498 7.27674C11.8388 7.57351 11.8325 8.04834 11.5357 8.3373L7.74228 12.0309C7.74093 12.0326 7.73749 12.0381 7.73749 12.0499C7.73749 12.0603 7.74011 12.0658 7.74168 12.0682Z" fill="black"/>
</svg>

<svg xmlns="http://www.w3.org/2000/svg" fill="none" viewBox="0 0 24 24">
  <path fill="#000" fill-rule="evenodd" d="M6.263 11.9a.75.75 0 0 1 .75-.75h10a.75.75 0 0 1 0 1.5h-10a.75.75 0 0 1-.75-.75Z" clip-rule="evenodd"/>
  <path fill="#000" fill-rule="evenodd" d="m7.742 12.068 3.786 3.588a.75.75 0 0 1-1.031 1.088l-3.808-3.607-.007-.007a1.535 1.535 0 0 1 0-2.16l.007-.008 3.8-3.7a.75.75 0 1 1 1.047 1.075l-3.794 3.694c-.001.002-.005.007-.005.019 0 .01.003.016.005.018Z" clip-rule="evenodd"/>
</svg>
